X:1
T: Castle Donovan
C:
R:Jig
Q:180
K:G
M:6/8
L:1/16
GA|B6 A2B2A2|G2A2G2 G2B2d2|e2d2d2 g2d2B2|B2A2G2 A2d2c2|B2c2B2 A2B2A2|G2A2G2 G2B2d2|e2d2d2 g2d2B2|c2A2F2 G4GA|
B6 A2B2A2|G2A2G2 G2B2d2|e2d2d2 g2d2B2|B2A2G2 A2d2c2|B2c2B2 A2B2A2|G2A2G2 G2B2d2|e2d2d2 g2d2B2|c2A2F2 G4d2|
g2f2g2 e2f2g2|f2a2g2 f2e2d2|g2f2g2 e2f2g2|a2f2d2 d4c2|B2c2B2 A2B2A2|G2A2G2 G2B2d2|e2d2d2 g2d2B2|c2A2F2 G4d2|
g2f2g2 e2f2g2|f2a2g2 f2e2d2|g2f2g2 e2f2g2|a2f2d2 d4c2|B2c2B2 A2B2A2|G2A2G2 G2B2d2|e2d2d2 g2d2B2|c2A2F2 G4||
